X:1
T:The Maid of the Mill
B:Journal of the English Folk Dance Society, 1931
S:Via Frank Kidson
F:http://www.folkinfo.org/songs
Z:Anne G Gilchrist
M:2/4     %Meter
L:1/16     %
K:Bb
F2 |BBc2 d2F2 |BBc2 d2c2 |BBd2 c2F2 |
B6 :|z2 |f2gf f2d2 |F2GF d2B2 |
f2gf f2d2 |B4 G4 |f2gf f2d2 |c2Bc dBG2 |
F2GF f2d2 |B4 B2 z2 |]